actions/system-log-out.svg

<?xml version="1.0" encoding="UTF-8" standalone="no"?>
<svg
   xmlns:dc="http://purl.org/dc/elements/1.1/"
   xmlns:cc="http://creativecommons.org/ns#"
   xmlns:rdf="http://www.w3.org/1999/02/22-rdf-syntax-ns#"
   xmlns:svg="http://www.w3.org/2000/svg"
   xmlns="http://www.w3.org/2000/svg"
   xmlns:sodipodi="http://sodipodi.sourceforge.net/DTD/sodipodi-0.dtd"
   xmlns:inkscape="http://www.inkscape.org/namespaces/inkscape"
   width="2048"
   height="2048"
   viewBox="-256 -384 2048 2048"
   id="svg2"
   version="1.1"
   inkscape:version="0.48.4 r9939"
   sodipodi:docname="system-log-out.svg">
  <metadata
     id="metadata12">
    <rdf:RDF>
      <cc:Work
         rdf:about="">
        <dc:format>image/svg+xml</dc:format>
        <dc:type
           rdf:resource="http://purl.org/dc/dcmitype/StillImage" />
        <dc:title />
      </cc:Work>
    </rdf:RDF>
  </metadata>
  <defs
     id="defs10" />
  <sodipodi:namedview
     pagecolor="#ffffff"
     bordercolor="#666666"
     borderopacity="1"
     objecttolerance="10"
     gridtolerance="10"
     guidetolerance="10"
     inkscape:pageopacity="0"
     inkscape:pageshadow="2"
     inkscape:window-width="640"
     inkscape:window-height="480"
     id="namedview8"
     showgrid="false"
     inkscape:zoom="0.11523438"
     inkscape:cx="1024"
     inkscape:cy="1024"
     inkscape:window-x="87"
     inkscape:window-y="125"
     inkscape:window-maximized="0"
     inkscape:current-layer="svg2" />
  <g
     transform="matrix(0,1,1,0,-31.457627,-183.32203)"
     id="g4">
    <path
       d="m 1536,640 c 0,-104 -20.3333,-203.33333 -61,-298 -40.6667,-94.66667 -95.3333,-176.33333 -164,-245 -68.6667,-68.666667 -150.3333,-123.333333 -245,-164 -94.66667,-40.66667 -194,-61 -298,-61 -104,0 -203.33333,20.33333 -298,61 C 375.33333,-26.333333 293.66667,28.333333 225,97 156.33333,165.66667 101.66667,247.33333 61,342 20.333333,436.66667 0,536 0,640 c 0,121.33333 26.833333,235.66667 80.5,343 53.66667,107.3333 129.16667,197.3333 226.5,270 28.66667,21.3333 60.5,29.6667 95.5,25 35,-4.6667 62.83333,-21.3333 83.5,-50 21.33333,-28 29.5,-59.5 24.5,-94.5 -5,-35 -21.5,-63.1667 -49.5,-84.5 C 395.66667,999.66667 345.16667,939.33333 309.5,868 273.83333,796.66667 256,720.66667 256,640 256,570.66667 269.5,504.5 296.5,441.5 323.5,378.5 360,324 406,278 452,232 506.5,195.5 569.5,168.5 632.5,141.5 698.66667,128 768,128 c 69.33333,0 135.5,13.5 198.5,40.5 63,27 117.5,63.5 163.5,109.5 46,46 82.5,100.5 109.5,163.5 27,63 40.5,129.16667 40.5,198.5 0,80.66667 -17.8333,156.66667 -53.5,228 -35.6667,71.33333 -86.1667,131.66667 -151.5,181 -28,21.3333 -44.5,49.5 -49.5,84.5 -5,35 3.1667,66.5 24.5,94.5 20.6667,28.6667 48.6667,45.3333 84,50 35.3333,4.6667 67,-3.6667 95,-25 97.3333,-72.6667 172.8333,-162.6667 226.5,-270 53.6667,-107.33333 80.5,-221.66667 80.5,-343 z"
       id="path6"
       inkscape:connector-curvature="0"
       style="fill:#000000"
       sodipodi:nodetypes="sssssssssscscscssssssssssscscscss" />
  </g>
  <g
     transform="matrix(0.76396736,0,0,-1,459.42374,1216.0015)"
     id="g4-7">
    <path
       style="fill:#000000"
       inkscape:connector-curvature="0"
       d="m 1728,643 q 0,-14 -10,-24 L 1334,265 q -16,-14 -35,-6 -19,9 -19,29 V 512 H 32 q -14,0 -23,9 -9,9 -9,23 v 192 q 0,14 9,23 9,9 23,9 h 1248 v 224 q 0,21 19,29 19,8 35,-5 l 384,-350 q 10,-10 10,-23 z"
       id="path6-2" />
  </g>
</svg>

<?xml version="1.0" encoding="UTF-8" standalone="no"?>
<svg
   xmlns:dc="http://purl.org/dc/elements/1.1/"
   xmlns:cc="http://creativecommons.org/ns#"
   xmlns:rdf="http://www.w3.org/1999/02/22-rdf-syntax-ns#"
   xmlns:svg="http://www.w3.org/2000/svg"
   xmlns="http://www.w3.org/2000/svg"
   xmlns:sodipodi="http://sodipodi.sourceforge.net/DTD/sodipodi-0.dtd"
   xmlns:inkscape="http://www.inkscape.org/namespaces/inkscape"
   width="2048"
   height="2048"
   viewBox="-256 -384 2048 2048"
   id="svg2"
   version="1.1"
   inkscape:version="0.48.4 r9939"
   sodipodi:docname="system-shutdown.svg">
  <metadata
     id="metadata12">
    <rdf:RDF>
      <cc:Work
         rdf:about="">
        <dc:format>image/svg+xml</dc:format>
        <dc:type
           rdf:resource="http://purl.org/dc/dcmitype/StillImage" />
        <dc:title></dc:title>
      </cc:Work>
    </rdf:RDF>
  </metadata>
  <defs
     id="defs10" />
  <sodipodi:namedview
     pagecolor="#ffffff"
     bordercolor="#666666"
     borderopacity="1"
     objecttolerance="10"
     gridtolerance="10"
     guidetolerance="10"
     inkscape:pageopacity="0"
     inkscape:pageshadow="2"
     inkscape:window-width="640"
     inkscape:window-height="480"
     id="namedview8"
     showgrid="false"
     inkscape:zoom="0.11523438"
     inkscape:cx="1024"
     inkscape:cy="1024"
     inkscape:window-x="87"
     inkscape:window-y="125"
     inkscape:window-maximized="0"
     inkscape:current-layer="svg2" />
  <g
     transform="matrix(0,1,1,0,-31.457627,-183.32203)"
     id="g4">
    <path
       d="M 1536,640 Q 1536,484 1475,342 1414,200 1311,97 1208,-6 1066,-67 924,-128 768,-128 612,-128 470,-67 328,-6 225,97 122,200 61,342 0,484 0,640 0,822 80.5,983 161,1144 307,1253 q 43,32 95.5,25 52.5,-7 83.5,-50 32,-42 24.5,-94.5 Q 503,1081 461,1049 363,975 309.5,868 256,761 256,640 256,536 296.5,441.5 337,347 406,278 475,209 569.5,168.5 664,128 768,128 872,128 966.5,168.5 1061,209 1130,278 q 69,69 109.5,163.5 40.5,94.5 40.5,198.5 0,121 -53.5,228 -53.5,107 -151.5,181 -42,32 -49.5,84.5 -7.5,52.5 24.5,94.5 31,43 84,50 53,7 95,-25 146,-109 226.5,-270 Q 1536,822 1536,640 z M 896,1408 V 768 q 0,-52 -38,-90 -38,-38 -90,-38 -52,0 -90,38 -38,38 -38,90 v 640 q 0,52 38,90 38,38 90,38 52,0 90,-38 38,-38 38,-90 z"
       id="path6"
       inkscape:connector-curvature="0"
       style="fill:#000000" />
  </g>
  <g
     transform="matrix(0.76396736,0,0,-1,459.42374,1224.0015)"
     id="g4-7">
    <path
       style="fill:#000000"
       inkscape:connector-curvature="0"
       d="m 1728,643 q 0,-14 -10,-24 L 1334,265 q -16,-14 -35,-6 -19,9 -19,29 V 512 H 32 q -14,0 -23,9 -9,9 -9,23 v 192 q 0,14 9,23 9,9 23,9 h 1248 v 224 q 0,21 19,29 19,8 35,-5 l 384,-350 q 10,-10 10,-23 z"
       id="path6-2" />
  </g>
</svg>
